icons/outline/shopping-cart.svg

<svg width="24" height="24" viewBox="0 0 24 24" fill="none" xmlns="http://www.w3.org/2000/svg">
<path d="M2.25 3H3.63568C4.14537 3 4.59138 3.34265 4.7227 3.83513L5.1059 5.27209M7.5 14.25C5.84315 14.25 4.5 15.5931 4.5 17.25H20.25M7.5 14.25H18.7183C19.8394 11.9494 20.8177 9.56635 21.6417 7.1125C16.88 5.89646 11.8905 5.25 6.75 5.25C6.20021 5.25 5.65214 5.2574 5.1059 5.27209M7.5 14.25L5.1059 5.27209M6 20.25C6 20.6642 5.66421 21 5.25 21C4.83579 21 4.5 20.6642 4.5 20.25C4.5 19.8358 4.83579 19.5 5.25 19.5C5.66421 19.5 6 19.8358 6 20.25ZM18.75 20.25C18.75 20.6642 18.4142 21 18 21C17.5858 21 17.25 20.6642 17.25 20.25C17.25 19.8358 17.5858 19.5 18 19.5C18.4142 19.5 18.75 19.8358 18.75 20.25Z" stroke="#0F172A" stroke-width="1.5" stroke-linecap="round" stroke-linejoin="round"/>
</svg>

<svg xmlns="http://www.w3.org/2000/svg" fill="none" viewBox="0 0 24 24" stroke-width="1.5" stroke="currentColor" aria-hidden="true">
  <path stroke-linecap="round" stroke-linejoin="round" d="M2.25 3h1.386c.51 0 .955.343 1.087.835l.383 1.437M7.5 14.25a3 3 0 00-3 3h15.75m-12.75-3h11.218c1.121-2.3 2.1-4.684 2.924-7.138a60.114 60.114 0 00-16.536-1.84M7.5 14.25L5.106 5.272M6 20.25a.75.75 0 11-1.5 0 .75.75 0 011.5 0zm12.75 0a.75.75 0 11-1.5 0 .75.75 0 011.5 0z"/>
</svg>
